X:1
T:Indiansummer Thuesday
T:Indiansummer-Thuesday
T:Damian Maria Rabe
T:magenta-music
C:Damian Maria Rabe
Z:All Rights Reserved
L:1/8
M:4/4
K:C
V:1 treble 
%%MIDI program 0
V:1
"C" c3 G c2 de |"Am" c3 c e2 f2 |"C" g3"Dm" g"Dm" f2 gf |"Am" e3 c"G7" c2"G7" B2 | %4
"C""Am" c4"Am" c4 |"Dm" f2 g"C"f"C" e4 |"F" f3"C" e"C""E7" e2"E7" d2 |"Am""G7" c2"G7""C" B2"C" c4 | %8
"F""G" f4"G" g4 |"G7" g2"C" d2"C" e4 |"Am""G7" e4"G7" d2 cB |"C" c6 z2 |] %12

